X:1
T:Title
%%score { 1 | 2 }
L:1/8
Q:1/4=72
M:6/8
K:F
V:1 treble nm="Grand Piano"
V:2 bass 
V:1
 A2 A A2 F | B2 A [FA] [EG]2 | [B,EG]2 [B,C] [B,EG]2 [CEA] | G2 F F3 | A2 A A2 F | %5
w: Charles~H.~Gabriel * * *|||||
 B2 A [FA] [EG]2 | [B,EG]2 [B,EG] [B,EG]2 C | [CFA]2 G F3 | c2 c c A2 | [Fd]2 [Fd] d c2 | %10
w: |||||
 c2 A c2 A | [FA]2 [EG] [EG]3 | A2 A A2 F | B2 A [FA] [EG]2 | [B,EG]2 [B,EG] [B,EG]2 C | %15
w: |||||
 [CFA]2 [B,CG] [A,CF]3 |] %16
w: |
V:2
 [F,CF]2 [F,CF] [F,CF]2 [F,A,C] | [F,DF]2 [F,CF] [C,C] [C,C]2 | C,2 C, C,2 C, | %3
 [C,B,C]2 [F,A,C] [F,A,C]3 | [F,CF]2 [F,CF] [F,CF]2 [F,A,C] | [F,DF]2 [F,CF] [C,C] [C,C]2 | %6
 C,2 C, C,2 C, | C,2 [C,B,C] [F,A,C]3 | [F,A,F]2 [F,A,F] [F,A,F] [F,CF]2 | %9
 [B,,B,]2 [B,,B,] [F,B,F] [F,A,F]2 | [F,A,F]2 [F,CF] [F,A,F]2 [F,CF] | [C,C]2 [C,C] [C,C]3 | %12
 [F,CF]2 [F,CF] [F,CF]2 [F,A,C] | [F,DF]2 [F,CF] [C,C] [C,C]2 | C,2 C, C,2 C, | C,2 C, F,3 |] %16

